X: 18051
T: Humours Of Ayle House, The
R: jig
M: 6/8
K: Dmajor
|:A|FDE F2d|cAA A2G|FDE FdB|cAF Gc/A/G|
FDE F2d|cAB cde|fc/a/f df/g/d|cAF G2:|
|:B|cAA fed|cAA A2B|cAA g/f/ed|cAF G2B|
cAA fed|cAB cde|fc/a/f df/g/d|cAF G2:|

